X:3795
L:1/8
M:4/4
K:G
 DE |: G3 G G2 e2 | d2 B2 BAGB | A4 B2 BA | G2 GE EDDE | G3 G G2 e2 | d2 B2 BAGB | A4 B2 BA |1 
 G3 G GEDE :|2 G3 G Gzef |: g2 gf e2 d2 | e2 f2 g3 e | d2 B2 BAGB | A2 d^c defa | g2 gf e2 d2 | 
 e2 f2 g3 e | d2 B2 AcBA |1 G2 GF GABd :|2 G3 G GEDE ||

